X:1
T:Title
%%score { ( 1 3 ) | ( 2 4 ) }
L:1/8
M:4/4
K:Eb
V:1 treble nm="Grand Piano"
V:3 treble 
V:2 bass 
V:4 bass 
V:1
 z4 z2[Q:1/4=100] [GB]2 | [Ge]3 e d2 c2 | [GB]4 G2 z z/ F/ | [EG]2 [EB]2 [DG]2 [DF]2 | %4
[M:3/4] [B,E]6 |[M:1/4] [GB]2 |[M:4/4] [Ge]3 [Ge] [Gd]2 [Gd]2 | [Gc]4 G2 [GB]2 | F2 d2 d3 c | %9
[M:3/4] [DB]6 |[M:1/4] B2 |[M:4/4] B2 B2 B2 B2 | B2 z2 z4 | c2 c2 c3 c |[M:3/4] c6 |[M:1/4] [Ac]2 | %16
[M:4/4] [Ad]3 [Ad] [Ac]2 [AB]2 |[M:9/8] [Ge]2 G- G [_DGB]2- [DGB] [CFA]2 | %18
[M:4/4] [B,EG]2 [=A,CG]2 [DG]3 [_A,DF] |[M:3/4][K:bass] [E,G,B,E]6 |] %20
V:2
 z4 z2 [E,B,]2 | [E,B,]3 [G,E] [A,E]2 [A,CE]2 | [E,E]4 [E,B,E]2 [C,A,]2 | %3
 [B,,B,]2 [B,,G,]2 [B,,A,]2 [B,,A,]2 |[M:3/4] [E,G,]6 |[M:1/4] [E,B,]2 | %6
[M:4/4] [C,C]3 [C,C] [D,=B,]2 [D,B,]2 | [E,C]4 [E,C]2 [=E,_D]2 | %8
 [F,D]2 [F,B,D]2 [F,=A,E]3 [F,A,E] |[M:3/4] [B,,F,]6 |[M:1/4] [B,,A,B,]2 | %11
[M:4/4] [C,A,C]2 [D,A,D]2[K:treble] [G,B,G]2 [F,A,F]2 | [F,A,F]>[E,G,] [E,G,E]4 [C,B,C]2 | %13
 [D,B,D]2 [=E,B,=E]2[K:treble] [A,CA]3 [G,B,G] |[M:3/4][K:bass] [F,A,F]6 |[M:1/4] [F,C]2 | %16
[M:4/4] [B,,B,]3 [B,,B,] [C,B,]2 [D,B,]2 |[M:9/8] .B,3 z3 z3 |[M:4/4] B,,2 B,,2 B,,3 B,, | %19
[M:3/4] E,,6 |] %20
V:3
 x8 | x8 | z4 z2 E2 | x8 |[M:3/4] x6 |[M:1/4] x2 |[M:4/4] x8 | x8 | x8 |[M:3/4] x6 |[M:1/4] x2 | %11
[M:4/4] x8 | z z/ E/ B4 c2 | x8 |[M:3/4] x6 |[M:1/4] x2 |[M:4/4] x8 |[M:9/8] x9 |[M:4/4] x8 | %19
[M:3/4][K:bass] x6 |] %20
V:4
 x8 | x8 | x8 | x8 |[M:3/4] x6 |[M:1/4] x2 |[M:4/4] x8 | x8 | x8 |[M:3/4] x6 |[M:1/4] x2 | %11
[M:4/4] x4[K:treble] x4 | x8 | x4[K:treble] x4 |[M:3/4][K:bass] x6 |[M:1/4] x2 |[M:4/4] x8 | %17
[M:9/8] E,2- [E,_D]- [E,D] G,,2- G,, A,,2 |[M:4/4] x8 |[M:3/4] x6 |] %20

